X:520
T:Barker's Maggot. (p)1709.PLFD.520
M:3/2
L:1/8
Q:1/2=100
S:Playford, Dancing Master,13th Ed.,1709.
O:England
Z:Chris Partington.
K:C
D2d2cBA2c4|GEC2C2D2EFGE|D2d2cBA2d4|AFD2DFD2EFGE:|
|:D2a2gfe2c4|GEC2C2D2EFGE|D2a2gfe2d4|AFD2DFD2EFGE:|
|:afd2ecA2c4|GEC2C2D2EFGE|afd2ecA2d4|AFD2DFD2EFGE:|
